X:1
T:Title
%%score { ( 1 3 ) | ( 2 4 ) }
L:1/8
Q:1/4=100
M:4/4
K:Ab
V:1 treble nm="Grand Piano"
V:3 treble 
V:2 bass 
V:4 bass 
V:1
 [CE]2 [CA]2 [CG]2 [CF]2 | [CE]>[Ec] [Ec]>c c4 | [DE]2 [DG]2 [DF]2 [DE]2 | E>d d>d d4 | %4
w: Mrs.~C.~H.~Morris * * *||||
 [Ec]2 [Ee]2 [Ee]>[Fd] [Ec]>[EB] | [EA]2 [EG]2 F4 | E>F G>A c2 B2 | [CA]6 z2 | %8
w: ||||
 [CE]2 [Ec]2 [DB]2 [CA]2 | [CE]>[_C=D] [=CE]>[_DF] [CE]2 [CA]2 | [DE]2 [Ed]2 [Ec]2 [DB]2 | %11
w: |||
 [DB]>[CA] [DB]>[Ec] [CA]2 [CE]2 | e>e e>d c2 e2 | [Bd]>[Bd] [Bd]>[Ac] [GB]2 z2 | %14
w: |||
 [Ac]2 [=Ac]2 [B=d]2 [_Ad]2 | e8 | [CE]2 [Ec]2 [DB]2 [CA]2 | [CE]>[_C=D] [=CE]>[_DF] [CE]2 [CA]2 | %18
w: ||||
 [DE]2 [Ed]2 [Ec]2 [DB]2 | [DB]>[CA] [DB]>[Ec] [CA]2 [CE]2 | e>e e>d c2 e2 | %21
w: |||
 [FAd]>[FAc] [FAd]>[FAd] [Af]4 | z2 A2 z4 | [CEA]6 z2 |] %24
w: |||
V:2
 [A,,A,]2 [A,,A,]2 [A,,A,]2 [A,,A,]2 | [A,,A,]>[A,,A,] [C,A,]>[E,A,E] [A,E]4 | %2
 [B,,G,]2 [B,,G,]2 [B,,G,]2 [B,,G,]2 | [E,G,D]>[E,B,E] [G,B,E]>[B,E] [E,B,E]4 | %4
 [A,,A,]2 [A,,C]2 [A,,C]>[A,,A,] [A,,A,]>[B,,G,] | [C,A,]2 [C,A,]2 [D,A,D]4 | %6
 [E,A,C]>[E,A,D] [E,B,D]>[E,A,C] [E,A,E]2 [E,G,D]2 | [A,,E,]6 z2 | %8
 [A,,A,]2 [E,,E,]2 [A,,A,]2 [E,,E,]2 | [A,,A,]2 [E,,E,]2 [A,,A,]2 [E,,E,]2 | %10
 [G,,G,]2 [E,,E,]2 [G,,G,]2 [E,,E,]2 | [A,,A,]2 [E,,E,]2 [A,,A,]2 [E,,E,]2 | %12
 [A,CA]>[A,CA] [A,CA]>[A,FA] [A,EA]2 c2 | [E,E]>[E,E] [E,E]>[E,E] [E,E]2 z2 | %14
 [A,E]2 [F,E]2 [B,F]2 [B,,B,]2 | B,2 z2 z4 | [A,,A,]2 [E,,E,]2 [A,,A,]2 [E,,E,]2 | %17
 [A,,A,]2 [E,,E,]2 [A,,A,]2 [E,,E,]2 | [G,,G,]2 [E,,E,]2 [G,,G,]2 [E,,E,]2 | %19
 [A,,A,]2 [E,,E,]2 [A,,A,]2 [E,,E,]2 | [A,CA]>[A,CA] [A,CA]>[A,FA] [A,EA]2 c2 | %21
 D,>D, D,>D, [D,D]4 | [E,C]2 F,D, E,2 E,2 | A,,6 z2 |] %24
V:3
 x8 | x8 | x8 | x8 | x8 | x8 | x8 | x8 | x8 | x8 | x8 | x8 | x8 | x8 | x8 | G2 A2 B4 | x8 | x8 | %18
 x8 | x8 | x8 | x8 | [Ae]2 C[Fd] [EAc]2 [DGB]2 | x8 |] %24
V:4
 x8 | x8 | x8 | x8 | x8 | x8 | x8 | x8 | x8 | x8 | x8 | x8 | x8 | x8 | x8 | E,2- [E,-C]2 [E,D]4 | %16
 x8 | x8 | x8 | x8 | x8 | x8 | x8 | x8 |] %24

